images/svg/number-list.svg

<svg xmlns="http://www.w3.org/2000/svg" width="32" height="32" viewBox="0 0 32 32"><path d="M12.312 25.594h14.688m-19.882-.017"/><path d="M12.266 6.354v4.549h14.687v-4.549h-14.687zm-.001 11.722h14.688v-4.549h-14.688v4.549zm.001 7.173h14.687v-4.55h-14.687v4.55zm-5.139-14.187h.991v-4.922h-.807l-.038.196c-.043.148-.106.265-.189.353-.122.129-.28.215-.475.258-.121.028-.335.049-.639.062v.659h1.157v3.394zm.025 6.14c.09-.077.256-.202.499-.373l.387-.275c.327-.231.562-.44.704-.628.218-.283.327-.606.327-.971 0-.475-.154-.857-.463-1.146-.308-.289-.723-.433-1.243-.433-.659 0-1.118.246-1.376.737-.137.258-.213.596-.229 1.015h.94c.012-.276.048-.478.108-.604.106-.22.308-.329.601-.329.216 0 .381.069.497.207.115.138.172.312.172.52 0 .256-.101.491-.302.706-.132.138-.42.367-.865.686-.515.367-.84.715-.978 1.043-.143.291-.219.613-.228.967h3.37v-.852h-2.146c.061-.103.136-.193.225-.27zm1.17 5.482c.117-.046.23-.13.339-.255.173-.199.258-.443.258-.733 0-.41-.144-.736-.432-.979-.288-.244-.668-.365-1.138-.365-.254 0-.468.029-.642.092-.174.061-.324.148-.451.265-.168.162-.293.341-.372.532-.075.221-.117.451-.126.696h.903c-.005-.242.046-.437.154-.581.106-.145.274-.217.503-.217.198 0 .353.059.461.176.11.119.165.271.165.459 0 .29-.107.482-.321.577-.124.057-.343.087-.656.092v.693c.32 0 .555.03.704.091.262.109.392.325.392.647 0 .245-.069.432-.212.563-.141.129-.306.195-.495.195-.31 0-.523-.119-.641-.357-.062-.13-.095-.292-.095-.488h-.95c.017.391.095.709.237.95.271.454.756.682 1.451.682.565 0 .992-.158 1.28-.474.288-.314.433-.681.433-1.098 0-.396-.123-.708-.37-.937-.164-.15-.291-.226-.379-.226z"/></svg>

<?xml version="1.0" encoding="utf-8"?>
<!-- Generator: Adobe Illustrator 16.0.0, SVG Export Plug-In . SVG Version: 6.00 Build 0)  -->
<!DOCTYPE svg PUBLIC "-//W3C//DTD SVG 1.1//EN" "http://www.w3.org/Graphics/SVG/1.1/DTD/svg11.dtd">
<svg version="1.1" id="Layer_1" xmlns="http://www.w3.org/2000/svg" xmlns:xlink="http://www.w3.org/1999/xlink" x="0px" y="0px"
	 width="32px" height="32px" viewBox="0 0 32 32" enable-background="new 0 0 32 32" xml:space="preserve">
<path d="M12.312,25.594H27 M7.118,25.577"/>
<path fill="#000" d="M12.266,6.354v4.549h14.687V6.354H12.266z M12.265,18.076h14.688v-4.549H12.265V18.076z
	 M12.266,25.249h14.687v-4.55H12.266V25.249z M7.127,11.062h0.991V6.14H7.311c0,0.042-0.013,0.108-0.038,0.196
	C7.23,6.484,7.167,6.601,7.084,6.689c-0.122,0.129-0.28,0.215-0.475,0.258C6.488,6.975,6.274,6.996,5.97,7.009v0.659h1.157V11.062z
	 M7.152,17.202c0.09-0.077,0.256-0.202,0.499-0.373l0.387-0.275c0.327-0.231,0.562-0.44,0.704-0.628
	c0.218-0.283,0.327-0.606,0.327-0.971c0-0.475-0.154-0.857-0.463-1.146c-0.308-0.289-0.723-0.433-1.243-0.433
	c-0.659,0-1.118,0.246-1.376,0.737c-0.137,0.258-0.213,0.596-0.229,1.015h0.94c0.012-0.276,0.048-0.478,0.108-0.604
	c0.106-0.22,0.308-0.329,0.601-0.329c0.216,0,0.381,0.069,0.497,0.207c0.115,0.138,0.172,0.312,0.172,0.52
	c0,0.256-0.101,0.491-0.302,0.706c-0.132,0.138-0.42,0.367-0.865,0.686c-0.515,0.367-0.84,0.715-0.978,1.043
	c-0.143,0.291-0.219,0.613-0.228,0.967h3.37v-0.852H6.927C6.988,17.369,7.063,17.279,7.152,17.202z M8.322,22.684
	c0.117-0.046,0.23-0.13,0.339-0.255c0.173-0.199,0.258-0.443,0.258-0.733c0-0.41-0.144-0.736-0.432-0.979
	c-0.288-0.244-0.668-0.365-1.138-0.365c-0.254,0-0.468,0.029-0.642,0.092c-0.174,0.061-0.324,0.148-0.451,0.265
	c-0.168,0.162-0.293,0.341-0.372,0.532c-0.075,0.221-0.117,0.451-0.126,0.696h0.903c-0.005-0.242,0.046-0.437,0.154-0.581
	c0.106-0.145,0.274-0.217,0.503-0.217c0.198,0,0.353,0.059,0.461,0.176c0.11,0.119,0.165,0.271,0.165,0.459
	c0,0.29-0.107,0.482-0.321,0.577c-0.124,0.057-0.343,0.087-0.656,0.092v0.693c0.32,0,0.555,0.03,0.704,0.091
	c0.262,0.109,0.392,0.325,0.392,0.647c0,0.245-0.069,0.432-0.212,0.563c-0.141,0.129-0.306,0.195-0.495,0.195
	c-0.31,0-0.523-0.119-0.641-0.357c-0.062-0.13-0.095-0.292-0.095-0.488h-0.95c0.017,0.391,0.095,0.709,0.237,0.95
	c0.271,0.454,0.756,0.682,1.451,0.682c0.565,0,0.992-0.158,1.28-0.474c0.288-0.314,0.433-0.681,0.433-1.098
	c0-0.396-0.123-0.708-0.37-0.937C8.537,22.76,8.41,22.684,8.322,22.684z"/>
</svg>
